dist/img/SAUNA/icon/holiday.svg

<svg width="30" height="30" viewBox="0 0 30 30" fill="none" xmlns="http://www.w3.org/2000/svg">
<path d="M27.2892 4.77321C26.732 4.77856 26.1856 4.81606 25.6499 4.97678C25.532 5.00892 25.4249 5.06249 25.3177 5.10535C25.5052 5.49642 25.6981 5.86071 25.8534 6.24106C26.2284 7.17857 25.8588 8.06785 25.157 8.53928C24.8731 8.73214 24.5463 8.79642 24.2088 8.80714C23.432 8.83393 22.6552 8.84464 21.8784 8.86607C21.841 8.86607 21.8088 8.87143 21.7499 8.87678C21.8785 9 22.0017 9.09643 22.1142 9.21428C22.3017 9.40714 22.4838 9.60535 22.6606 9.80357C22.9713 10.1625 23.0142 10.5804 22.9177 11.0196C22.7517 11.7643 22.3124 12.2839 21.616 12.5786C20.8285 12.9161 19.9927 12.9536 19.141 12.9321C19.141 12.2518 19.141 11.5768 19.141 10.8964C19.6713 10.8911 20.207 10.9393 20.7374 10.725C20.566 10.5643 20.4052 10.4143 20.2499 10.2696C19.8802 9.92678 19.5106 9.57857 19.2535 9.13393C18.9427 8.59285 18.9427 8.0625 19.291 7.54285C19.5267 7.19464 19.8802 7.02321 20.282 6.94285C20.9035 6.81964 21.5302 6.81428 22.157 6.81428C22.6981 6.81428 23.2445 6.80357 23.7856 6.79821C23.807 6.79821 23.8338 6.79821 23.8767 6.79285C23.7802 6.63749 23.6892 6.49821 23.5981 6.35356C23.3624 5.98392 23.2284 5.58213 23.2124 5.14821C23.1909 4.47856 23.4642 3.9482 23.9945 3.55177C24.482 3.18213 25.0499 3.00535 25.6392 2.88213C26.1856 2.77499 26.7374 2.73749 27.2892 2.73749C27.2892 3.41249 27.2892 4.09285 27.2892 4.77321Z" fill="#2F2F2F"/>
<path d="M16.8695 27.2089C16.7195 27.1768 16.5641 27.1553 16.4141 27.1125C15.9052 26.9678 15.5677 26.6196 15.3159 26.1696C15.1713 25.9125 15.0909 25.6339 15.0588 25.3393C15.0534 25.2857 15.0588 25.2321 15.0588 25.1678C15.0963 25.1678 15.1338 25.1678 15.1713 25.1678C15.782 25.1678 16.3927 25.1678 17.0088 25.1678C17.0677 25.1678 17.1374 25.1518 17.1909 25.1196C17.5177 24.9268 17.7909 24.6803 18.0588 24.4178C18.3909 24.0964 18.7124 23.7643 19.1034 23.5071C19.4302 23.2929 19.7838 23.1482 20.1749 23.1321C20.7588 23.1107 21.2302 23.3464 21.6213 23.7643C21.8624 24.0161 22.0391 24.3161 22.1999 24.6214C22.2802 24.7714 22.3766 24.9107 22.4624 25.0553C22.4999 25.1143 22.5427 25.1303 22.5963 25.0875C22.7409 24.9803 22.8963 24.8839 23.0195 24.7607C23.282 24.5036 23.5284 24.2196 23.7909 23.9571C24.1124 23.6304 24.4766 23.3625 24.9266 23.2232C25.4731 23.0518 25.982 23.1054 26.4266 23.4911C26.7106 23.7375 26.8606 24.0696 26.9731 24.4178C27.1177 24.8518 27.1713 25.2964 27.2141 25.7464C27.2463 26.0732 27.257 26.3946 27.2838 26.7214C27.2891 26.7589 27.2945 26.8018 27.2999 26.8393C27.2999 26.9625 27.2999 27.0857 27.2999 27.2089C26.6195 27.2089 25.9391 27.2089 25.2588 27.2089C25.2374 26.6518 25.2159 26.0946 25.1302 25.5268C25.0927 25.5589 25.0659 25.5803 25.0445 25.6071C24.7927 25.8643 24.5516 26.1321 24.2945 26.3839C23.9356 26.7375 23.5231 27.016 23.0249 27.1393C22.9124 27.166 22.7999 27.1875 22.6874 27.2089C22.5534 27.2089 22.4141 27.2089 22.2802 27.2089C22.2641 27.2035 22.2481 27.1928 22.232 27.1928C21.7766 27.1232 21.3909 26.9143 21.0749 26.5821C20.8445 26.3411 20.6677 26.0625 20.5016 25.7678C20.3999 25.5911 20.2981 25.4089 20.1909 25.2214C20.0945 25.3071 20.0034 25.3714 19.9231 25.4518C19.5534 25.8053 19.1945 26.1696 18.8141 26.5125C18.407 26.8821 17.9249 27.1178 17.3677 27.1768C17.2713 27.1875 17.1749 27.1982 17.0784 27.2089C17.0034 27.2089 16.9338 27.2089 16.8695 27.2089Z" fill="#2F2F2F"/>
<path d="M27.2892 19.05C26.6142 19.05 25.9392 19.05 25.2696 19.05C25.2213 18.7768 25.1838 18.5089 25.1303 18.2464C25.0821 18.0161 25.0017 17.7964 24.8731 17.5982C24.6642 17.2714 24.3428 17.1321 23.9785 17.0732C23.7267 17.0357 23.4749 17.0196 23.2178 16.9928C23.2178 16.3286 23.2178 15.6589 23.2178 14.9839C23.2231 14.9786 23.2285 14.9732 23.2338 14.9732C23.9892 14.9732 24.7285 15.0589 25.4142 15.4178C26.1535 15.8036 26.6303 16.4143 26.9249 17.1857C27.1124 17.6732 27.2035 18.1821 27.2678 18.6964C27.2731 18.7339 27.2838 18.7661 27.2892 18.8036C27.2892 18.8893 27.2892 18.9696 27.2892 19.05Z" fill="#2F2F2F"/>
<path d="M27.2892 11.9304C27.2624 11.9518 27.2303 11.9732 27.2035 11.9946C26.8981 12.3 26.5874 12.6107 26.2928 12.9054C25.9553 12.5679 25.6178 12.2304 25.2856 11.8982C25.6017 11.5768 25.9392 11.2446 26.2821 10.8964C26.3303 10.9446 26.3838 11.0036 26.4374 11.0571C26.6946 11.3143 26.9517 11.5714 27.2088 11.8286C27.2303 11.85 27.2624 11.8661 27.2892 11.8875C27.2892 11.9036 27.2892 11.9196 27.2892 11.9304Z" fill="#2F2F2F"/>
<path d="M11.973 27.2089C11.9516 27.1821 11.9302 27.15 11.9088 27.1232C11.6034 26.8179 11.2927 26.5071 10.998 26.2125C11.3355 25.875 11.673 25.5375 12.0052 25.2054C12.3266 25.5215 12.6588 25.8589 13.007 26.2018C12.9588 26.25 12.8998 26.3036 12.8463 26.3572C12.5891 26.6143 12.332 26.8714 12.0748 27.1286C12.0534 27.15 12.0373 27.1821 12.0159 27.2089C11.9998 27.2089 11.9891 27.2089 11.973 27.2089Z" fill="#2F2F2F"/>
<path d="M2.88208 27.134C2.99458 26.8232 3.10172 26.5393 3.20351 26.2554C3.78744 24.675 4.37137 23.0893 4.95529 21.509C5.84458 19.0982 6.73387 16.6875 7.62315 14.2768C8.06779 13.0715 8.50708 11.8661 8.95172 10.6607C9.03744 10.4357 9.11244 10.2054 9.20887 9.98574C9.47137 9.40716 9.94815 9.09109 10.5428 8.93574C11.1053 8.79109 11.6678 8.85002 12.2249 8.98395C12.9803 9.17145 13.666 9.51431 14.3303 9.91074C15.8089 10.7947 17.0946 11.909 18.2464 13.184C18.9749 13.9875 19.6232 14.8447 20.1642 15.7875C20.5607 16.4786 20.8928 17.1965 21.0696 17.9786C21.2035 18.5625 21.2142 19.1465 21.0053 19.725C20.7589 20.3947 20.2821 20.7965 19.5964 20.9679C19.4089 21.0161 19.2374 21.1072 19.0553 21.1768C16.7357 22.034 14.4214 22.8857 12.1017 23.7375C9.49279 24.6965 6.88922 25.6607 4.28029 26.6197C3.84637 26.7804 3.41779 26.9411 2.98387 27.0965C2.96244 27.1125 2.93565 27.1179 2.88208 27.134ZM6.32137 23.7054C9.55172 22.5161 12.7553 21.3375 15.9589 20.159C13.4249 18.6268 11.3946 16.6072 9.86779 14.0679C8.68922 17.2715 7.51065 20.475 6.32137 23.7054ZM19.141 18.809C19.1249 18.7125 19.1196 18.6161 19.0982 18.5197C18.9857 17.925 18.7339 17.3893 18.4339 16.8643C17.9892 16.0768 17.4482 15.359 16.8535 14.684C15.9696 13.6875 14.9946 12.7875 13.8857 12.0375C13.2428 11.6036 12.5732 11.2179 11.8178 11.0036C11.6035 10.9447 11.3785 10.9125 11.1589 10.8911C10.9982 10.875 10.9499 10.9179 10.9714 11.0732C10.9982 11.3197 11.0303 11.5715 11.0999 11.8125C11.2928 12.4715 11.6249 13.0607 11.9999 13.6286C13.0071 15.1554 14.2607 16.4465 15.7232 17.5447C16.4089 18.0643 17.1321 18.525 17.9464 18.825C18.2464 18.9375 18.5571 19.034 18.8839 19.0447C19.1142 19.0554 19.1357 19.034 19.141 18.809Z" fill="#2F2F2F"/>
<path d="M2.81776 14.984C2.81776 14.2875 2.81776 13.6179 2.81776 12.9429C2.97847 12.9322 3.13383 12.9268 3.29454 12.9161C3.63204 12.8893 3.96419 12.8357 4.2749 12.7072C4.38204 12.6643 4.47847 12.6 4.5749 12.5411C4.7999 12.4072 4.86954 12.1929 4.84812 11.9465C4.84276 11.8982 4.79454 11.8393 4.74633 11.8072C4.5374 11.6572 4.32312 11.5125 4.10347 11.3732C3.72312 11.1322 3.38026 10.859 3.13919 10.4679C2.56597 9.55182 2.76954 8.40003 3.63204 7.76253C3.89454 7.56968 4.19454 7.43039 4.47847 7.26432C4.59633 7.19468 4.71419 7.13039 4.85347 7.04468C4.71954 6.95361 4.60169 6.87325 4.48383 6.79825C4.15704 6.58932 3.80883 6.41253 3.50883 6.17146C3.04276 5.79646 2.78026 5.29289 2.80704 4.68218C2.83919 3.90539 3.40169 2.96253 4.46776 2.78039C4.58562 2.75896 4.70883 2.74825 4.84276 2.73218C4.84276 2.78575 4.84276 2.82325 4.84276 2.86075C4.84276 3.42325 4.84276 3.99111 4.84276 4.55361C4.84276 4.61789 4.85883 4.66075 4.91776 4.69289C5.20704 4.86432 5.50169 5.03039 5.78026 5.21253C6.24633 5.51253 6.5999 5.90896 6.77669 6.45003C7.03919 7.24825 6.7874 8.11075 6.09633 8.65718C5.87133 8.83396 5.60883 8.96253 5.3624 9.10718C5.19633 9.20361 5.0249 9.29468 4.83204 9.39646C4.93919 9.48218 5.0249 9.55182 5.11597 9.61611C5.3999 9.80896 5.70526 9.98575 5.97312 10.1947C6.58919 10.6768 6.93204 11.309 6.86776 12.1018C6.77669 13.2268 6.21419 14.0518 5.18562 14.5393C4.6874 14.775 4.1624 14.8929 3.61597 14.9411C3.36954 14.9518 3.09633 14.9625 2.81776 14.984Z" fill="#2F2F2F"/>
<path d="M10.9819 2.72144C11.3301 2.74822 11.6784 2.76429 12.0212 2.80179C12.7819 2.89286 13.5105 3.10179 14.1909 3.45001C15.4605 4.10894 16.3016 5.12679 16.7409 6.48215C16.9873 7.23215 17.0891 8.00894 17.0891 8.79644C17.0891 8.80715 17.0891 8.82322 17.0837 8.84465C16.4087 8.84465 15.7337 8.84465 15.0587 8.84465C15.0426 8.60894 15.0319 8.37858 15.0051 8.14286C14.9301 7.44108 14.7426 6.77144 14.3462 6.17679C13.9016 5.50715 13.2694 5.12144 12.5034 4.93394C12.0051 4.81072 11.4962 4.77322 10.9819 4.76786C10.9819 4.09822 10.9819 3.42322 10.9819 2.72144Z" fill="#2F2F2F"/>
<path d="M6.91602 3.75004C7.24816 3.4179 7.58566 3.08576 7.90709 2.75897C8.23923 3.09111 8.57137 3.42861 8.89816 3.75004C8.57673 4.07147 8.23923 4.40897 7.90709 4.74111C7.58566 4.41968 7.24816 4.08754 6.91602 3.75004Z" fill="#2F2F2F"/>
<path d="M19.1624 3.74468C19.4838 3.42326 19.8159 3.09111 20.1481 2.75897C20.4749 3.08576 20.8124 3.42326 21.1391 3.75004C20.8177 4.07147 20.4802 4.40897 20.1534 4.7304C19.832 4.41433 19.4945 4.07683 19.1624 3.74468Z" fill="#2F2F2F"/>
<path d="M2.84985 17.7643C3.16592 17.4482 3.50342 17.1107 3.83557 16.7786C4.16771 17.1107 4.49985 17.4482 4.82664 17.7803C4.50521 18.1018 4.17307 18.4339 3.84628 18.7607C3.5195 18.4339 3.182 18.0964 2.84985 17.7643Z" fill="#2F2F2F"/>
</svg>

<svg width="30" height="30" viewBox="0 0 30 30" fill="none" xmlns="http://www.w3.org/2000/svg"><path d="M27.29 4.773c-.558.006-1.104.043-1.64.204-.118.032-.225.085-.332.128.187.391.38.756.535 1.136a1.864 1.864 0 01-.696 2.298c-.284.193-.61.257-.948.268-.777.027-1.554.038-2.33.06-.038 0-.07.004-.13.01.13.123.253.22.365.337.188.193.37.391.547.59.31.358.353.776.257 1.216-.166.744-.606 1.264-1.302 1.559-.788.337-1.623.375-2.475.353v-2.036c.53-.005 1.066.043 1.596-.171a211.3 211.3 0 00-.487-.455c-.37-.343-.74-.691-.997-1.136-.31-.541-.31-1.072.038-1.591.236-.348.59-.52.991-.6.622-.123 1.248-.129 1.875-.129.541 0 1.087-.01 1.629-.016.021 0 .048 0 .09-.005-.096-.156-.187-.295-.278-.44a2.376 2.376 0 01-.386-1.205c-.021-.67.252-1.2.782-1.596.488-.37 1.056-.547 1.645-.67a8.55 8.55 0 011.65-.145v2.036zM16.87 27.209c-.15-.032-.306-.054-.456-.096-.509-.145-.846-.493-1.098-.943a2.146 2.146 0 01-.257-.83c-.006-.054 0-.108 0-.172h1.95a.37.37 0 00.182-.048c.327-.193.6-.44.868-.702.332-.322.653-.654 1.044-.91.327-.215.68-.36 1.072-.376.584-.021 1.055.214 1.446.632.241.252.418.552.579.857.08.15.177.29.262.434.038.06.08.075.134.032.145-.107.3-.203.424-.326.262-.257.508-.541.77-.804.322-.327.687-.595 1.137-.734.546-.171 1.055-.118 1.5.268.284.247.434.579.546.927.145.434.198.878.241 1.328.032.327.043.649.07.975l.016.118v.37h-2.041c-.022-.557-.043-1.114-.129-1.682-.037.032-.064.053-.085.08-.252.257-.493.525-.75.777-.36.354-.772.632-1.27.755a7.627 7.627 0 01-.338.07h-.407c-.016-.006-.032-.016-.048-.016a1.975 1.975 0 01-1.157-.61 3.975 3.975 0 01-.573-.815c-.102-.177-.204-.36-.311-.547-.096.086-.188.15-.268.23-.37.354-.728.719-1.109 1.061-.407.37-.89.606-1.446.665l-.29.032h-.209zm10.42-8.159h-2.02c-.049-.273-.086-.541-.14-.804a1.889 1.889 0 00-.257-.648c-.209-.327-.53-.466-.895-.525-.251-.037-.503-.053-.76-.08v-2.01c.005-.004.01-.01.016-.01.755 0 1.494.086 2.18.445.74.386 1.216.996 1.51 1.768.188.487.28.996.344 1.51.005.038.016.07.021.108v.246zm0-7.12c-.028.022-.06.043-.087.065l-.91.91-1.007-1.007c.316-.321.653-.653.996-1.002.048.049.102.108.155.161l.772.772c.021.021.053.037.08.058v.043zM11.973 27.209l-.064-.086-.911-.91 1.007-1.008c.322.317.654.654 1.002.997-.048.048-.107.102-.16.155l-.772.772c-.022.021-.038.053-.06.08h-.042zm-9.091-.075c.113-.31.22-.595.322-.879.583-1.58 1.167-3.166 1.751-4.746l2.668-7.232c.445-1.205.884-2.41 1.329-3.616.085-.225.16-.456.257-.675.262-.579.74-.895 1.334-1.05.562-.145 1.125-.086 1.682.048.755.187 1.441.53 2.105.927 1.479.884 2.765 1.998 3.916 3.273.729.804 1.377 1.66 1.918 2.604.397.69.729 1.409.906 2.19.133.584.144 1.168-.065 1.747-.246.67-.723 1.072-1.409 1.243-.187.048-.359.14-.54.209-2.32.857-4.635 1.709-6.954 2.56-2.61.96-5.213 1.924-7.822 2.883-.434.16-.862.321-1.296.476-.022.017-.048.022-.102.038zm3.44-3.429l9.637-3.546c-2.534-1.532-4.564-3.552-6.091-6.091a44165.94 44165.94 0 01-3.547 9.637zM19.14 18.81c-.016-.097-.021-.193-.043-.29-.112-.594-.364-1.13-.664-1.655a12.928 12.928 0 00-1.58-2.18c-.884-.996-1.86-1.896-2.968-2.646-.643-.434-1.313-.82-2.068-1.034a3.941 3.941 0 00-.66-.113c-.16-.016-.208.027-.187.182.027.247.06.498.129.74.193.659.525 1.248.9 1.816 1.007 1.526 2.26 2.818 3.723 3.916.686.52 1.41.98 2.223 1.28.3.113.611.209.938.22.23.01.252-.011.257-.236zM2.818 14.984v-2.041c.16-.01.316-.016.477-.027.337-.027.67-.08.98-.209.107-.043.203-.107.3-.166.225-.134.295-.348.273-.595-.005-.048-.053-.107-.102-.139-.209-.15-.423-.295-.643-.434-.38-.24-.723-.514-.964-.905-.573-.916-.37-2.068.493-2.705.263-.193.563-.333.846-.499.118-.07.236-.134.375-.22-.133-.09-.251-.17-.37-.246-.326-.209-.674-.385-.974-.627-.466-.375-.729-.878-.702-1.489.032-.777.595-1.72 1.66-1.902.119-.021.242-.032.376-.048v1.822c0 .064.016.107.075.139.289.171.584.337.862.52.466.3.82.696.997 1.237.262.798.01 1.66-.68 2.207-.226.177-.488.306-.735.45-.166.097-.337.188-.53.29.107.085.193.155.284.22.284.192.59.369.857.578.616.482.959 1.114.895 1.907-.091 1.125-.654 1.95-1.682 2.437a4.556 4.556 0 01-1.57.402c-.246.01-.52.021-.798.043zm8.164-12.263c.348.027.696.043 1.04.08.76.092 1.489.3 2.169.649 1.27.659 2.11 1.677 2.55 3.032.246.75.348 1.527.348 2.314 0 .011 0 .027-.005.049h-2.025c-.016-.236-.027-.466-.054-.702-.075-.702-.262-1.372-.659-1.966-.444-.67-1.077-1.056-1.843-1.243-.498-.123-1.007-.16-1.521-.166V2.72zM6.916 3.75c.332-.332.67-.664.991-.991.332.332.664.67.991.991l-.99.991c-.322-.321-.66-.653-.992-.991zm12.246-.005l.986-.986.991.991c-.321.321-.659.659-.986.98-.321-.316-.659-.653-.99-.985zM2.85 17.764l.986-.985c.332.332.664.67.99 1.001-.32.322-.653.654-.98.98l-.996-.996z" fill="#2F2F2F"/></svg>
